X:2
T:An Buachaill Dreoite
Z: id:dc-hornpipe-2
M:3/4
K:Cmaj
=B, 2 | C E B, D C B, | A, G, F, E, D, C, | F, A, C G, F, D, | A, C, G, B, C B, | C G, E, F, G, A, | B, G, B, D z F | E G e f =d e | c 4 :| c G | F E D 2 E C | D c B G A F | E E F D E F | D C B, 2 G, 2 | B, C D G, G, D | C F E D C C | B, A, G, F E D | C 3 :|
